X: 97
T: In the North
C: Teton Sioux band 1911-1914
N: Derived from sioux097.krn
O: South Dakota, U.S.A.
N: Teton Sioux Music by Frances Densmore, 1918
Z: transcribed to **kern format by Craig Sapp
L: 1/4
M: 2/4
Q: 1/4=58
K: Db clef=bass
%%linebreak <none>
B,B, | 
FF3// G// ||  
[M:3/4]F3 | 
FD2 | 
EEE | 
DB,2- | 
B,3 | 
B,G,2 ||  
[M:2/4]G,G, | 
B,B,3// C// | 
B,2- | 
B,-B,3// C// | 
B,2- | 
B,B, ||  
[M:3/4]FFF/ B,/ ||  
[M:2/4]F/> F/F ||  
[M:3/4](3(F/ D/) D/DF/ F/ | 
E/> E/EE3// E// | 
(3(E/ D/) D/DD ||  
[M:2/4]B,2- | 
B,B, ||  
[M:3/4]G,3 ||  
[M:2/4]G,G, | 
B,B,3// C// | 
B,2- | 
B,2 ||  
[M:3/4]B,B,G, ||  
[M:2/4]B,3/C/ | 
B,z :|]  



